X:10
T:Macton Reel
C:Ward Allen
R:reel
M:4/4
L:1/8
Z:abc by Bruce Osborne - bosborne@kos.net
K:D
(3A,B,C|D2 DC DEFG|EDEF G2 FG|AFGE FEDB,|CFED CA,B,C|
D2 DC DEFG|EDEF G2 FG|AFGE FEDB,|CDEC D2:|
|:(3ABc|d2 dc dAFA|dfed cABc|d2 cd BdAF|GBAG FDCE|
D2 DC DEFG|EDEF G2 FG|AFGE FEDB,|CDEF D2:|
